X: 37853
T: Sord Cholmcille
R: polka
M: 2/4
K: Gmajor
|:GB de/f/|gg f/e/d|DF A>B|cc c/B/A|
GB de/f/|gg f/e/d|DF A>B|AG G2:|
|:bd bd|b>b b/a/g/b/|ad ad|a>g a/g/f/a/|
bd bd|b>b b/a/g/b/|ad ef|g2 g z:|

